public/img/svg/advantage-2.svg

<svg fill="none" height="73" viewBox="0 0 72 73" width="72" xmlns="http://www.w3.org/2000/svg"><g fill="#000"><path d="m12.6109 8.86026c-.2581-.00006-.5055-.1026-.6879-.28508l-4.15171-4.15168-4.15168 4.15168c-.1835.17723-.42928.2753-.68439.27308-.25511-.00221-.49914-.10454-.67954-.28494-.1804-.18039-.28272-.42443-.28494-.67954s.09585-.50088.27309-.68439l4.83957-4.83957c.18245-.1824.42989-.28487.68789-.28487.25799 0 .50543.10247.68789.28487l4.83952 4.83957c.1361.13607.2287.30942.2662.49813.0376.18871.0183.38431-.0553.56208-.0737.17776-.1983.3297-.3583.43662-.16.10691-.348.164-.5404.16404z"/><path d="m69.0714 65.3151h-21.1621c-.2581 0-.5056-.1025-.688-.285-.1825-.1825-.285-.4299-.285-.688 0-.258.1025-.5055.285-.688.1824-.1824.4299-.285.688-.285h21.1329c.2596-.0005.5089.1014.6938.2835.1849.1822.2905.43.2938.6895.0017.127-.0219.2531-.0693.3709-.0474.1179-.1177.2252-.2068.3157s-.1953.1624-.3124.2115c-.1172.0492-.2429.0746-.3699.0749z"/><path d="m31.3979 65.3151h-2.8217c-.258 0-.5055-.1025-.688-.285-.1824-.1825-.2849-.4299-.2849-.688 0-.258.1025-.5055.2849-.688.1825-.1825.43-.285.688-.285h2.8217c.258 0 .5055.1025.688.285.1824.1825.2849.43.2849.688 0 .2581-.1025.5055-.2849.688-.1825.1825-.43.285-.688.285z"/><path d="m21.7655 65.3151h-18.85625c-.25805 0-.50553-.1025-.68799-.285-.18247-.1825-.28498-.4299-.28498-.688 0-.258.10251-.5055.28498-.688.18246-.1825.42994-.285.68799-.285h18.85625c.258 0 .5055.1025.688.285.1824.1825.2849.43.2849.688 0 .2581-.1025.5055-.2849.688-.1825.1825-.43.285-.688.285z"/><path d="m41.0983 65.3151h-2.8897c-.2581 0-.5056-.1025-.688-.285-.1825-.1825-.285-.4299-.285-.688 0-.258.1025-.5055.285-.688.1824-.1825.4299-.285.688-.285h2.8897c.2581 0 .5055.1025.688.285s.285.43.285.688c0 .2581-.1025.5055-.285.688s-.4299.285-.688.285z"/><path d="m7.77107 70.1828c-.25805 0-.50553-.1025-.688-.285-.18246-.1824-.28497-.4299-.28497-.688v-66.16212c0-.25805.10251-.50553.28497-.688.18247-.18246.42995-.28497.688-.28497s.50553.10251.68799.28497c.18247.18247.28498.42995.28498.688v66.16212c0 .2581-.10251.5056-.28498.688-.18246.1825-.42994.285-.68799.285z"/><path d="m64.2037 70.1576c-.1924-.0001-.3805-.0572-.5405-.1641-.1599-.1069-.2846-.2588-.3582-.4366-.0737-.1778-.0929-.3734-.0554-.5621s.1302-.362.2662-.4981l4.1517-4.1517-4.1517-4.1517c-.0929-.0897-.1671-.1971-.2181-.3158-.0509-.1187-.0778-.2464-.0789-.3756s.0235-.2573.0724-.3769c.0489-.1195.1212-.2282.2125-.3195.0914-.0914.2-.1636.3196-.2125.1196-.049.2477-.0736.3769-.0725.1292.0012.2568.028.3756.079.1187.051.226.1251.3158.218l4.8395 4.8396c.1824.1825.2849.4299.2849.6879s-.1025.5054-.2849.6879l-4.8395 4.8396c-.1825.1825-.4299.285-.6879.2851z"/><path d="m7.77226 65.3179c-.21873 0-.43108-.0737-.60277-.2092s-.29272-.3249-.34354-.5377c-.05083-.2127-.02848-.4364.06342-.6348.0919-.1985.248-.3602.4431-.4591.34735-.1761 34.76243-17.8959 38.53943-45.9915.0345-.2558.1692-.4875.3744-.6441.2053-.1566.4644-.2252.7202-.1907.2559.0344.4876.1691.6441.3744.1566.2053.2252.4643.1907.7202-3.9152 29.1162-39.23413 47.2875-39.59121 47.4684-.1357.0687-.28572.1044-.43783.1041z"/><path d="m50.7892 24.2849c-.1574.0003-.3124-.0377-.4519-.1106-.1394-.0728-.2592-.1784-.3489-.3077l-3.3927-4.897-4.897 3.3937c-.105.0728-.2233.1242-.3482.1512s-.2539.0292-.3796.0064-.2457-.0702-.3531-.1394c-.1075-.0692-.2002-.1588-.273-.2639-.0727-.105-.1241-.2233-.1511-.3482-.0271-.1249-.0292-.2539-.0064-.3796s.0701-.2457.1393-.3531.1589-.2002.2639-.2729l5.6958-3.9474c.105-.0729.2233-.1243.3483-.1514.1249-.0271.2539-.0294.3797-.0066s.2458.0701.3533.1393.2003.1588.2731.2639l3.9483 5.6958c.1013.146.1606.3169.1716.4942.0111.1773-.0267.3543-.1091.5117s-.2063.2892-.3583.3812c-.152.0919-.3263.1405-.504.1404z"/></g></svg>

<svg width="72" height="73" viewBox="0 0 72 73" fill="none" xmlns="http://www.w3.org/2000/svg">
<path d="M12.6109 8.86026C12.3528 8.8602 12.1054 8.75766 11.923 8.57518L7.77129 4.4235L3.61961 8.57518C3.43611 8.75241 3.19033 8.85048 2.93522 8.84826C2.68011 8.84605 2.43608 8.74372 2.25568 8.56332C2.07528 8.38293 1.97296 8.13889 1.97074 7.88378C1.96852 7.62867 2.06659 7.3829 2.24383 7.19939L7.0834 2.35982C7.26585 2.17742 7.51329 2.07495 7.77129 2.07495C8.02928 2.07495 8.27672 2.17742 8.45918 2.35982L13.2987 7.19939C13.4348 7.33546 13.5274 7.50881 13.5649 7.69752C13.6025 7.88623 13.5832 8.08183 13.5096 8.2596C13.4359 8.43736 13.3113 8.5893 13.1513 8.69622C12.9913 8.80313 12.8033 8.86022 12.6109 8.86026Z" fill="black"/>
<path d="M69.0714 65.3151H47.9093C47.6512 65.3151 47.4037 65.2126 47.2213 65.0301C47.0388 64.8476 46.9363 64.6002 46.9363 64.3421C46.9363 64.0841 47.0388 63.8366 47.2213 63.6541C47.4037 63.4717 47.6512 63.3691 47.9093 63.3691H69.0422C69.3018 63.3686 69.5511 63.4705 69.736 63.6526C69.9209 63.8348 70.0265 64.0826 70.0298 64.3421C70.0315 64.4691 70.0079 64.5952 69.9605 64.713C69.9131 64.8309 69.8428 64.9382 69.7537 65.0287C69.6646 65.1192 69.5584 65.1911 69.4413 65.2402C69.3241 65.2894 69.1984 65.3148 69.0714 65.3151Z" fill="black"/>
<path d="M31.3979 65.3151H28.5762C28.3182 65.3151 28.0707 65.2126 27.8882 65.0301C27.7058 64.8476 27.6033 64.6002 27.6033 64.3421C27.6033 64.0841 27.7058 63.8366 27.8882 63.6541C28.0707 63.4716 28.3182 63.3691 28.5762 63.3691H31.3979C31.6559 63.3691 31.9034 63.4716 32.0859 63.6541C32.2683 63.8366 32.3708 64.0841 32.3708 64.3421C32.3708 64.6002 32.2683 64.8476 32.0859 65.0301C31.9034 65.2126 31.6559 65.3151 31.3979 65.3151Z" fill="black"/>
<path d="M21.7655 65.3151H2.90925C2.6512 65.3151 2.40372 65.2126 2.22126 65.0301C2.03879 64.8476 1.93628 64.6002 1.93628 64.3421C1.93628 64.0841 2.03879 63.8366 2.22126 63.6541C2.40372 63.4716 2.6512 63.3691 2.90925 63.3691H21.7655C22.0235 63.3691 22.271 63.4716 22.4535 63.6541C22.6359 63.8366 22.7384 64.0841 22.7384 64.3421C22.7384 64.6002 22.6359 64.8476 22.4535 65.0301C22.271 65.2126 22.0235 65.3151 21.7655 65.3151Z" fill="black"/>
<path d="M41.0983 65.3151H38.2086C37.9505 65.3151 37.703 65.2126 37.5206 65.0301C37.3381 64.8476 37.2356 64.6002 37.2356 64.3421C37.2356 64.0841 37.3381 63.8366 37.5206 63.6541C37.703 63.4716 37.9505 63.3691 38.2086 63.3691H41.0983C41.3564 63.3691 41.6038 63.4716 41.7863 63.6541C41.9688 63.8366 42.0713 64.0841 42.0713 64.3421C42.0713 64.6002 41.9688 64.8476 41.7863 65.0301C41.6038 65.2126 41.3564 65.3151 41.0983 65.3151Z" fill="black"/>
<path d="M7.77107 70.1828C7.51302 70.1828 7.26554 70.0803 7.08307 69.8978C6.90061 69.7154 6.7981 69.4679 6.7981 69.2098V3.04768C6.7981 2.78963 6.90061 2.54215 7.08307 2.35968C7.26554 2.17722 7.51302 2.07471 7.77107 2.07471C8.02912 2.07471 8.2766 2.17722 8.45906 2.35968C8.64153 2.54215 8.74404 2.78963 8.74404 3.04768V69.2098C8.74404 69.4679 8.64153 69.7154 8.45906 69.8978C8.2766 70.0803 8.02912 70.1828 7.77107 70.1828Z" fill="black"/>
<path d="M64.2037 70.1576C64.0113 70.1575 63.8232 70.1004 63.6632 69.9935C63.5033 69.8866 63.3786 69.7347 63.305 69.5569C63.2313 69.3791 63.2121 69.1835 63.2496 68.9948C63.2871 68.8061 63.3798 68.6328 63.5158 68.4967L67.6675 64.345L63.5158 60.1933C63.4229 60.1036 63.3487 59.9962 63.2977 59.8775C63.2468 59.7588 63.2199 59.6311 63.2188 59.5019C63.2177 59.3727 63.2423 59.2446 63.2912 59.125C63.3401 59.0055 63.4124 58.8968 63.5037 58.8055C63.5951 58.7141 63.7037 58.6419 63.8233 58.593C63.9429 58.544 64.071 58.5194 64.2002 58.5205C64.3294 58.5217 64.457 58.5485 64.5758 58.5995C64.6945 58.6505 64.8018 58.7246 64.8916 58.8175L69.7311 63.6571C69.9135 63.8396 70.016 64.087 70.016 64.345C70.016 64.603 69.9135 64.8504 69.7311 65.0329L64.8916 69.8725C64.7091 70.055 64.4617 70.1575 64.2037 70.1576Z" fill="black"/>
<path d="M7.77226 65.3179C7.55353 65.3179 7.34118 65.2442 7.16949 65.1087C6.9978 64.9732 6.87677 64.7838 6.82595 64.571C6.77512 64.3583 6.79747 64.1346 6.88937 63.9362C6.98127 63.7377 7.13737 63.576 7.33247 63.4771C7.67982 63.301 42.0949 45.5812 45.8719 17.4856C45.9064 17.2298 46.0411 16.9981 46.2463 16.8415C46.4516 16.6849 46.7107 16.6163 46.9665 16.6508C47.2224 16.6852 47.4541 16.8199 47.6106 17.0252C47.7672 17.2305 47.8358 17.4895 47.8013 17.7454C43.8861 46.8616 8.56717 65.0329 8.21009 65.2138C8.07439 65.2825 7.92437 65.3182 7.77226 65.3179Z" fill="black"/>
<path d="M50.7892 24.2849C50.6318 24.2852 50.4768 24.2472 50.3373 24.1743C50.1979 24.1015 50.0781 23.9959 49.9884 23.8666L46.5957 18.9696L41.6987 22.3633C41.5937 22.4361 41.4754 22.4875 41.3505 22.5145C41.2256 22.5415 41.0966 22.5437 40.9709 22.5209C40.8452 22.4981 40.7252 22.4507 40.6178 22.3815C40.5103 22.3123 40.4176 22.2227 40.3448 22.1176C40.2721 22.0126 40.2207 21.8943 40.1937 21.7694C40.1666 21.6445 40.1645 21.5155 40.1873 21.3898C40.2101 21.2641 40.2574 21.1441 40.3266 21.0367C40.3958 20.9293 40.4855 20.8365 40.5905 20.7638L46.2863 16.8164C46.3913 16.7435 46.5096 16.6921 46.6346 16.665C46.7595 16.6379 46.8885 16.6356 47.0143 16.6584C47.1401 16.6812 47.2601 16.7285 47.3676 16.7977C47.4751 16.8669 47.5679 16.9565 47.6407 17.0616L51.589 22.7574C51.6903 22.9034 51.7496 23.0743 51.7606 23.2516C51.7717 23.4289 51.7339 23.6059 51.6515 23.7633C51.5691 23.9207 51.4452 24.0525 51.2932 24.1445C51.1412 24.2364 50.9669 24.285 50.7892 24.2849Z" fill="black"/>
</svg>
